X:443
T:Peggy's Nettles
R:jig
C:Noel Ryan
S:David Lombardi, who got it from Siobhan Peoples
Z:hn-jig-443
M:6/8
L:1/8
K:A
ecB A3 | c3 cBA | ~B3 f2e | d3 fga | 
ecB A2B | cef ecA | ~B3 ~f3 | ecB A2f |
ecB A2B | cef ecA | ~B3 f2e | f2e fga | 
ecB A2B | cef ecA | ~B3 ~f3 | ecB Acd ||
e2A cBA | ~c3 cBA | GAB ~E3 | GBe agf |
e2c cBA | ~c3 cBA | ~B3 ~f3 | ecB A2f |
ecB A2B | c3 cBA | GAB ~E3 | GBe agf |
e2d cBA | ~c3 cBA | ~B3 ~f3 | ecB Ace ||
aAA gAA | ~f3 ecA | ~B3 f2e | ~f3 fed |
cea gfe | def ecA | ~B3 ~f3 | ecB Ace |
aAA gab | ~f3 ecA | ~B3 f2e | d3 fed |
cea gfe | def ecA | ~B3 ~f3 | ecB A2f ||

